assets/swan.svg

<svg id="emoji" viewBox="0 0 72 72" xmlns="http://www.w3.org/2000/svg">

  <path id="debug_frame_o" fill="#aaaaaa" stroke="#000000" stroke-width="0" d="M0,0H72V72H0Z" />	

  <path id="debug_frame" fill="#ffffff" stroke="#000000" stroke-width="0" d="M10.9,9.4H61.1V63H10.899999999999999Z" />	


  <g id="color">
  
  
    <path id="swan_body_fill" fill="#fedcba"
	d="M23.8422,42.51C45.8722,29.944699999999997,48.0522,42.3547,51.3095,39.2008C52.3048,38.2371,59.9936,35.4447,59.9936,35.4447S57.2447,58.744699999999995,47.4045,60.3613C40.0266,61.5732,24.6803,62.5374,19.3688,60.3613C10.1888,56.6002,12.2039,44.0156,13.9732,39.8213C16.0284,34.9495,25.410800000000002,31.035400000000003,23.3087,20.5194C23.1233,19.5916,23.1112,18.4486,22.03,17.9894C20.5074,17.3423,17.55,21.2838,14.604000000000001,20.113599999999998C14.604000000000001,20.113599999999998,18.3957,11.370499999999998,21.5426,10.380299999999998C26.0607,8.958699999999999,29.4059,14.568199999999997,29.930500000000002,17.202099999999998C31.047800000000002,22.812099999999997,25.6397,31.215199999999996,25.134700000000002,35.302099999999996C25.1077,35.522099999999995,23.841700000000003,42.510099999999994,23.841700000000003,42.510099999999994Z" />
	
    <path id="swan_beak" fill="#f4aa41"
	d="M17.7632,15.7092C17.6282,16.994699999999998,19.6962,18.185399999999998,19.925800000000002,18.971999999999998C20.221100000000003,19.9839,15.730100000000002,19.389799999999997,15.730100000000002,19.389799999999997S17.8731,14.663799999999998,17.7631,15.708799999999997Z" />
	
  </g>
  
  <g id="swan_border_line" fill="none" stroke="#000000" stroke-linecap="round" stroke-linejoin="round" stroke-width="2">
  
    <path id="swan_body_line"
	d="M27.1986,41.0877C30.2436,40.1777,35.6819,33.9477,47.010400000000004,38.288799999999995C55.25880000000001,41.4494,59.9936,35.4443,59.9936,35.4443S57.891600000000004,57.7933,47.4046,60.3613C40.142300000000006,62.1395,24.680400000000002,62.5374,19.368900000000004,60.3613C10.188900000000004,56.6002,11.144300000000003,44.8692,13.973300000000004,39.8213C16.884300000000003,34.6272,24.115300000000005,31.2427,24.241400000000006,20.5194" />
	
    <path id="swan_neck_line" 
	d="M23.77,43.5077C24.48,31.426000000000002,30.8357,23.0917,29.9309,17.2015C29.235500000000002,12.674199999999999,26.1568,9.4415,21.6387,10.863599999999998C18.4919,11.853599999999998,14.6044,20.113,14.6044,20.113C17.5506,21.283,22.0304,17.988799999999998,22.0304,17.988799999999998" />
	
    <path id="swan_feather_line" 
	d="M49.6121,44.31C47.479,47.8089,37.7121,49.6158,32.959599999999995,49.734700000000004" />
	
  </g>

</svg>

<svg viewBox="0 0 72 72" xmlns="http://www.w3.org/2000/svg">
    <path fill="#aaa" d="M0 0h72v72H0Z"/>

    <path fill="#fff" d="M10.9 9.4h50.2V63H10.9Z"/>

    <path fill="#fedcba" d="M23.842 42.51c22.03-12.565 24.21-.155
      27.468-3.31.995-.963 8.684-3.755 8.684-3.755s-2.75 23.3-12.59
      24.916c-7.377 1.212-22.724 2.176-28.035
      0-9.18-3.76-7.165-16.345-5.396-20.54 2.055-4.871 11.438-8.786
      9.336-19.302-.186-.927-.198-2.07-1.279-2.53-1.523-.647-4.48
      3.295-7.426 2.125 0 0 3.792-8.744 6.939-9.734 4.518-1.421 7.863
      4.188 8.388 6.822 1.117 5.61-4.291 14.013-4.796
      18.1-.027.22-1.293 7.208-1.293 7.208Z"/>

    <path fill="#f4aa41" d="M17.763 15.71c-.135 1.285 1.933 2.475 2.163
      3.262.295 1.012-4.196.418-4.196.418s2.143-4.726 2.033-3.681Z"/>

    <g fill="none" stroke="#000" stroke-linecap="round"
      stroke-linejoin="round" stroke-width="2">

        <path d="M27.199 41.088c3.045-.91 8.483-7.14 19.811-2.8 8.249 3.161
          12.984-2.844 12.984-2.844s-2.102 22.35-12.59 24.917c-7.262
          1.779-22.724 2.176-28.035 0-9.18-3.76-8.225-15.492-5.396-20.54
          2.911-5.194 10.142-8.578 10.268-19.302"/>

        <path d="M23.77 43.508c.71-12.082 7.066-20.416
          6.16-26.307-.694-4.527-3.773-7.76-8.291-6.337-3.147.99-7.035
          9.249-7.035 9.249 2.947 1.17 7.426-2.124 7.426-2.124M49.612
          44.31c-2.133 3.499-11.9 5.306-16.652 5.425"/>

    </g>

</svg>
